X:1
T:Title
%%score { ( 1 4 ) | ( 2 3 ) }
L:1/8
M:4/4
K:G
V:1 treble nm="Grand Piano"
V:4 treble 
V:2 bass 
V:3 bass 
V:1
 z4 z2[Q:1/4=112] D2 | G2 F2 G2 [FA]2 | [GB] [Gd]3- [Gd]2 [EAc]2 | [DGB]4 [CFA]4 | %4
 [B,G]6 .[G,DG]2 | [G,CE]2 [G,DF]2 [CEG]2 E2 | D G3- G2 B2 | B2 A4 B2 | [FA]6 z2 | B3 A G4 | %10
 B3 A G4 | [EA]2 [EG]2 [EG][EG] [CE]2 | [B,D]6 D2 | G3 [FA] B2 c2 | d B3- B2 B2 | A2 E2 EF G2 | %16
 [FA]6 z2 | d4 B2 G2 | [FA]2 G6 | [Ec]2 [Ec]2 [EG]2 [^DA]2 | B6 z2 | d3 c B4 | d3 c B4 | %23
 [EA]2 [EA]2 [DG] [DF]3 |[M:3/4] [B,DG]6 |] %25
V:2
 z4 z2 [G,B,]2 | [G,B,D]2 [A,CD]2 [G,B,D]2 [D,D]2 | [G,D] [G,B,]3- [G,B,]2 C,2 | D,4 D,4 | %4
 G,6 z F | C,2 C,2 C,2 [C,G,C]2 | [G,B,][K:treble] [G,B,D]3- [G,B,D]2 [G,DG]2 | %7
 [A,^CG]2 [A,CG]4 [A,CG]2 | [D,D]6 z2 | [G,DG]3 [G,CF] [G,B,]4 | [G,DG]3 [G,CF][K:bass] [G,B,]4 | %11
 [C,C]2 [C,C]2 [C,C][C,C] [C,G,]2 | [G,,G,]6 [G,B,]2 | [G,B,D]3 [D,D][K:treble] [G,DG]2 [A,DF]2 | %14
 [B,DG] [G,DG]3- [G,DG]2 [G,DG]2 | [A,^CE]2 [A,C]2 [A,C][A,CE] [A,CE]2 | D4 z4 | %17
 [G,B,G]4 [G,DG]2[K:bass] [G,B,]2 | [D,C]2 [G,B,]6 | [C,G,]2 [C,G,]2 [C,C]2 [C,C]2 | [G,B,D]6 z2 | %21
 [B,DG]3 [A,DF] [G,DG]4 | [B,DG]3 [A,DF] [G,DG]4 | [C,C]2 [C,C]2 [D,B,] [D,C]3 |[M:3/4] [G,,G,]6 |] %25
V:3
 x8 | x8 | x8 | x8 | z4 z2 B,,2 | x8 | x[K:treble] x7 | x8 | x8 | x8 | x4[K:bass] x4 | x8 | x8 | %13
 x4[K:treble] x4 | x8 | x8 | D,6 z2 | x6[K:bass] x2 | x8 | x8 | x8 | x8 | x8 | x8 |[M:3/4] x6 |] %25
V:4
 x8 | x8 | x8 | x8 | x8 | x8 | x8 | x8 | x8 | x8 | x8 | x8 | x8 | x8 | x8 | x8 | z4 C4 | x8 | x8 | %19
 x8 | x8 | x8 | x8 | x8 |[M:3/4] x6 |] %25

